X: 4
T: The Handsome Young Maidens
R: jig
M: 6/8
L: 1/8
K: Gmaj
|:gdc BcA|GBd gfg|add cdd|Add agf|gdc BcA|GBd gfg|afd cAD|AGF G2f:|||:B2G DGB|cee edc|Bcd gdB|Aee edc|B2G DGB|cee edc|Bcd gdB|cAd G2A:||


Tune 145	Setting 29967

